svgs/duotone/sink.svg

<svg xmlns="http://www.w3.org/2000/svg" viewBox="0 0 512 512"><!--! Font Awesome Pro 6.0.0-alpha3 by @fontawesome - https://fontawesome.com License - https://fontawesome.com/license (Commercial License) --><defs><style>.fa-secondary{opacity:.4}</style></defs><path class="fa-primary" d="M352 112c0 8.836 7.164 16 16 16h32c8.838 0 16-7.164 16-16v-16c0-59.2-53.85-106-115.1-94.14C255.3 10.71 224 53.36 224 99.79v188.2h64v-192c0-17.64 14.36-32 32-32s32 14.36 32 32V112zM128 208L48 208c-8.836 0-16 7.162-16 16v15.1C32 248.8 39.16 256 48 256l64-.0002V288L160 288V240C160 222.3 145.7 208 128 208zM464 208L384 208c-17.67 0-32 14.33-32 32v47.1L400 288V256l64 .0002c8.838 0 16-7.164 16-15.1v-15.1C480 215.2 472.8 208 464 208z"/><path class="fa-secondary" d="M32 416c0 53.02 42.98 96 96 96h256c53.02 0 96-42.98 96-96v-32H32V416zM496 288h-480c-8.836 0-16 7.164-16 16v32c0 8.836 7.164 16 16 16h480c8.836 0 16-7.164 16-16V304C512 295.2 504.8 288 496 288z"/></svg>

<svg xmlns="http://www.w3.org/2000/svg" viewBox="0 0 512 512"><!-- Font Awesome Pro 5.15.3 by @fontawesome - https://fontawesome.com License - https://fontawesome.com/license (Commercial License) --><defs><style>.fa-secondary{opacity:.4}</style></defs><path d="M32,416a96,96,0,0,0,96,96H384a96,96,0,0,0,96-96V384H32ZM496,288H16A16,16,0,0,0,0,304v32a16,16,0,0,0,16,16H496a16,16,0,0,0,16-16V304A16,16,0,0,0,496,288Z" class="fa-secondary"/><path d="M352,112a16,16,0,0,0,16,16h32a16,16,0,0,0,16-16V96A96.16,96.16,0,0,0,300.87,1.86C255.29,10.71,224,53.36,224,99.79V288h64V96a32,32,0,0,1,64,0Zm112,96H384a32,32,0,0,0-32,32v48h48V256h64a16,16,0,0,0,16-16V224A16,16,0,0,0,464,208Zm-336,0H48a16,16,0,0,0-16,16v16a16,16,0,0,0,16,16h64v32h48V240A32,32,0,0,0,128,208Z" class="fa-primary"/></svg>
